!!!OTL: Na gromnice
**kern
*staff1
=--
*clefC1
*k[]
00.r
=-
1a
2b
2dd
2cc
2cc
1dd
1cc
2b
2a
=-
1g
1f
1a
1b
1cc
1b
=-
2cc
2dd
1cc
1dd
=-
!!linebreak:original
2dd
2dd
2cc
2a
1g
=-
!LO:TX:Y=-38:t=P
!LO:TX:Y=-37:t=P
1a
1a
1a
1a
1a
1cc
=-
!LO:TX:Y=-38:t=P
!LO:TX:Y=-40:t=P
1dd
1a
1a
1b
1cc
1a
=-
!LO:TX:Y=-37:t=P
!LO:TX:Y=126:t=P
1f
1g
=-
!!linebreak:original
1a
1b
2cc
2dd
1cc
=-
1dd
1dd
1cc
2dd
2dd
1a
1dd
=-
!LO:TX:Y=-36:t=P
1cc
2dd
2dd
1a
1g
2g
2f
1e
1d
=-
!!linebreak:original
1f
1g
1a
1g
1a
=-
!LO:TX:Y=-35:t=P
2g
2f
1e
1d
1f
1g
1a
=-
1g
1a
2b
2cc
2dd
2b
=-
!LO:TX:Y=-197:t=P
2cc
2dd
0cc
0dd
!!linebreak:original
=-
00r
=-
!LO:TX:Y=-198:t=P
1a
2cc
2cc
2b
2cc
1dd
=-
!LO:TX:Y=-42:t=P
!LO:TX:Y=-42:t=P
1cc
1b
1cc
1a
=-
2a
2a
2b
2dd
1cc
1dd
=-
!LO:TX:Y=-43:t=P
1a
2b
2cc
2dd
2b
2cc
2dd
=-
0cc
=-=
*-
!!title: @{OTL}, @{GTL}, ed. @{ENC}
!!!pag:
!!!GTL: Hymnbook C
!!!EFL: 
!!!YEM: Creative Commons CC/BY/NC/SA 4.0
!!!ENC: Marcin Konik
!!!END: 2015-0m-dd
!!!EED: Marcin Konik
!!!EEV: 
!!!ONB: Encoded in vim by Marcin Konik
!!!CharacterEncoding: utf-8
!!!RDF**kern: l=long note in original notation
!!!RDF**kern: i=editorial accidental
!!muse2ps: z14jc180F
!!!COM: Anonim
!!!CDT: [?]
!!!TXO: Polish
!!!ODT: 
!!!GTL: Hymnbook C
!!!ARL: Opactwo św. Wojciecha, Staniątki 
!!!voices:	1
